public/img/2.svg

<svg width="243" height="309" viewBox="0 0 243 309" fill="none" xmlns="http://www.w3.org/2000/svg">
<g opacity="0.7">
<g clip-path="url(#clip0)">
<mask id="mask0" mask-type="alpha" maskUnits="userSpaceOnUse" x="-85" y="-71" width="536" height="535">
<path fill-rule="evenodd" clip-rule="evenodd" d="M8.00236 171.281C5.17718 179.59 2.86121 188.048 1.02446 196.488L109.906 88.7546C107.884 88.7232 105.861 88.6734 103.841 88.6237C100.543 88.5426 97.2529 88.4616 93.9861 88.4608L8.00236 171.281ZM17.0314 149.034L76.7096 89.6953C68.2292 91.1729 60.1418 94.2951 52.7776 100.655C37.6657 113.707 25.8785 130.546 17.0314 149.034ZM121.654 88.5954L-2.19058 214.469C-2.99704 220.058 -3.71572 225.733 -4.30491 231.44L144.061 83.9343C136.86 86.9672 129.32 88.1772 121.654 88.5954ZM180.806 47.402L249.348 -20.7424C246.282 -20.6629 243.153 -20.2933 239.963 -19.6042C217.72 -14.7992 204.355 7.8721 190.604 31.1986C187.398 36.6368 184.172 42.1107 180.806 47.402ZM261.454 -19.5423L-5.35884 243.775C-5.79388 250.306 -6.02165 256.832 -5.98031 263.275L267.85 -17.6651C265.755 -18.4233 263.623 -19.0532 261.454 -19.5423ZM275.591 -14.211L-5.57734 275.162C-5.38476 278.206 -5.12065 281.219 -4.77809 284.193L286.874 -6.78013C283.262 -9.62716 279.499 -12.1347 275.591 -14.211ZM290.597 -3.68228L-3.12853 295.062C-2.28728 299.46 -1.24073 303.741 0.0362308 307.873L301.919 7.81427C298.346 3.67639 294.57 -0.200335 290.597 -3.68228ZM310.936 19.3454L2.93858 316.013C4.87547 320.758 7.17535 325.255 9.88286 329.446L315.895 26.6613C314.303 24.1955 312.65 21.7501 310.936 19.3454ZM319.014 31.6434L16.9615 338.645C17.1064 338.803 17.2521 338.961 17.3986 339.118C19.4933 341.364 21.7109 343.428 24.0391 345.322L326.365 44.7481C325.994 43.9823 325.607 43.223 325.202 42.4704C323.274 38.8894 321.21 35.2594 319.014 31.6434ZM329.452 52.3551L28.7702 348.836C33.1081 351.776 37.7623 354.207 42.6653 356.183L331.422 59.4213C330.876 57.0225 330.225 54.6653 329.452 52.3551ZM332.993 68.4827L51.192 359.103C53.8525 359.866 56.5691 360.516 59.3325 361.061L333.955 87.1235C333.99 80.7572 333.743 74.5179 332.993 68.4827ZM333.801 94.5408L69.952 362.631C74.6924 363.114 79.5291 363.334 84.4205 363.325L332.636 116.522C332.73 114.891 332.827 113.262 332.924 111.634C333.267 105.896 333.609 100.181 333.801 94.5408ZM331.879 136.23L96.5975 362.856C104.24 362.295 111.931 361.254 119.517 359.857L332.228 149.388C331.938 145.049 331.845 140.655 331.879 136.23ZM333.162 158.033L139.463 354.905C154.069 349.036 166.145 336.266 178.311 323.401C190.787 310.209 203.357 296.916 218.849 290.862L336.719 173.674C335.215 168.437 333.969 163.215 333.162 158.033ZM339.765 183.406L234.706 287.088C239.628 286.555 244.63 286.515 249.668 286.785L342.56 191.481C341.606 188.792 340.666 186.099 339.765 183.406ZM348.574 208.455L270.177 289.14C272.219 289.455 274.257 289.781 276.289 290.107C278.265 290.423 280.235 290.738 282.197 291.042L352.487 220.915C351.336 216.795 350.001 212.638 348.574 208.455ZM354.7 229.997L293.19 292.558C299.649 293.297 305.953 293.665 312.001 293.245L356.311 249.202C356.7 242.96 356.032 236.54 354.7 229.997Z" fill="white"/>
</mask>
<g mask="url(#mask0)">
<path d="M155.193 110.407C151.935 110.286 149.16 111.312 146.867 113.484C144.575 115.656 143.428 118.733 143.428 122.715H116.097C115.856 109.804 119.355 99.7278 126.595 92.4878C133.835 85.1272 143.851 81.4468 156.641 81.4468C164.967 81.4468 172.268 83.4378 178.542 87.4198C184.938 91.2812 189.523 96.2285 192.298 102.262C195.194 108.295 196.22 115.234 195.375 123.077C194.651 130.92 191.755 138.583 186.687 146.064C186.687 147.029 178.482 158.794 162.071 181.359H197.728V210.681H114.649V203.622L158.632 139.186C161.649 134.601 163.761 130.257 164.967 126.154C166.174 121.931 165.993 118.311 164.424 115.294C162.856 112.157 159.779 110.528 155.193 110.407Z" fill="white"/>
</g>
</g>
</g>
<defs>
<clipPath id="clip0">
<rect width="242.557" height="308.335" fill="white"/>
</clipPath>
</defs>
</svg>

<svg width="243" height="309" fill="none" xmlns="http://www.w3.org/2000/svg"><g clip-path="url(#clip0)" opacity=".7"><mask id="a" maskUnits="userSpaceOnUse" x="-85" y="-71" width="536" height="535"><path fill-rule="evenodd" clip-rule="evenodd" d="M8.002 171.281a231.083 231.083 0 00-6.978 25.207L109.906 88.755c-2.022-.032-4.045-.082-6.065-.131-3.298-.081-6.588-.162-9.855-.163L8.002 171.28zm9.03-22.247L76.71 89.695c-8.48 1.478-16.568 4.6-23.932 10.96-15.112 13.052-26.9 29.891-35.747 48.379zm104.622-60.439L-2.191 214.47a423.576 423.576 0 00-2.114 16.971L144.061 83.934c-7.201 3.033-14.741 4.243-22.407 4.661zm59.152-41.193l68.542-68.144c-3.066.08-6.195.449-9.385 1.138-22.243 4.805-35.608 27.476-49.359 50.803-3.206 5.438-6.432 10.912-9.798 16.203zm80.648-66.944L-5.359 243.775c-.435 6.531-.663 13.057-.621 19.5l273.83-280.94a53.129 53.129 0 00-6.396-1.877zm14.137 5.331L-5.577 275.162c.192 3.044.456 6.057.799 9.031L286.874-6.78c-3.612-2.847-7.375-5.355-11.283-7.431zm15.006 10.529L-3.129 295.062c.842 4.398 1.888 8.679 3.165 12.811L301.92 7.814c-3.574-4.138-7.35-8.014-11.323-11.496zm20.339 23.027L2.939 316.013c1.936 4.745 4.236 9.242 6.944 13.433L315.895 26.661a192.516 192.516 0 00-4.959-7.316zm8.078 12.298L16.961 338.645a66.152 66.152 0 007.078 6.677L326.365 44.748a60.093 60.093 0 00-1.163-2.278 240.777 240.777 0 00-6.188-10.827zm10.438 20.712L28.77 348.836c4.338 2.94 8.992 5.371 13.895 7.347L331.422 59.421a74.027 74.027 0 00-1.97-7.066zm3.541 16.128L51.192 359.103a99.048 99.048 0 008.14 1.958L333.955 87.123c.035-6.366-.212-12.605-.962-18.64zm.808 26.058L69.952 362.63c4.74.483 9.577.703 14.469.694l248.215-246.803c.094-1.631.191-3.26.288-4.888.343-5.738.685-11.453.877-17.093zm-1.922 41.689L96.597 362.856c7.643-.561 15.334-1.602 22.92-2.999l212.711-210.469c-.29-4.339-.383-8.733-.349-13.158zm1.283 21.803L139.463 354.905c14.606-5.869 26.682-18.639 38.848-31.504 12.476-13.192 25.046-26.485 40.538-32.539l117.87-117.188c-1.504-5.237-2.75-10.459-3.557-15.641zm6.603 25.373L234.706 287.088c4.922-.533 9.924-.573 14.962-.303l92.892-95.304a473.6 473.6 0 01-2.795-8.075zm8.809 25.049l-78.397 80.685c2.042.315 4.08.641 6.112.967 1.976.316 3.946.631 5.908.935l70.29-70.127c-1.151-4.12-2.486-8.277-3.913-12.46zm6.126 21.542l-61.51 62.561c6.459.739 12.763 1.107 18.811.687l44.31-44.043c.389-6.242-.279-12.662-1.611-19.205z" fill="#fff"/></mask><g mask="url(#a)"><path d="M155.193 110.407c-3.258-.121-6.033.905-8.326 3.077-2.292 2.172-3.439 5.249-3.439 9.231h-27.331c-.241-12.911 3.258-22.987 10.498-30.227 7.24-7.36 17.256-11.041 30.046-11.041 8.326 0 15.627 1.99 21.901 5.973 6.396 3.861 10.981 8.808 13.756 14.842 2.896 6.033 3.922 12.972 3.077 20.815-.724 7.843-3.62 15.506-8.688 22.987 0 .965-8.205 12.73-24.616 35.295h35.657v29.322h-83.079v-7.059l43.983-64.436c3.017-4.585 5.129-8.929 6.335-13.032 1.207-4.223 1.026-7.843-.543-10.86-1.568-3.137-4.645-4.766-9.231-4.887z" fill="#fff"/></g></g><defs><clipPath id="clip0"><path fill="#fff" d="M0 0h242.557v308.335H0z"/></clipPath></defs></svg>
